X:12105
T:Nun llores nin
C:Tradicional
S:Msica Tradicional Asturiana, (C) Tello & Tito. Asturies, 2001.
S:http://pagina.de/MusTradAst <telloytito@asturies.org>
A:Asturies
Z:Curdin
M:3/4
L:1/4
Q:1/4=100
K:C
|C C C|C E E|F G/F/ G/D/|E2 z|
|G3/2 F/ E|D E F|E3|z3|
|E D C|C E C|D3/2 E/ D/C/|B,2 z|
|C C D|F E D|C2 z|
|E D C|C2 z|
|E D C|B,2 z|
|C C D|F E D|C3-|C z2|
